images/50242575.svg

<?xml version="1.0" encoding="UTF-8"?>
<svg xmlns="http://www.w3.org/2000/svg" xmlns:xlink="http://www.w3.org/1999/xlink" width="300pt" height="300pt" viewBox="0 0 300 300" version="1.1">
<defs>
<g>
<symbol overflow="visible" id="glyph0-0">
<path style="stroke:none;" d="M 0.75 2.65625 L 0.75 -10.578125 L 8.25 -10.578125 L 8.25 2.65625 Z M 1.59375 1.8125 L 7.40625 1.8125 L 7.40625 -9.734375 L 1.59375 -9.734375 Z M 1.59375 1.8125 "/>
</symbol>
<symbol overflow="visible" id="glyph0-1">
<path style="stroke:none;" d="M 8.03125 -10.578125 L 8.03125 -9.140625 C 7.46875 -9.398438 6.9375 -9.597656 6.4375 -9.734375 C 5.9375 -9.867188 5.457031 -9.9375 5 -9.9375 C 4.1875 -9.9375 3.5625 -9.78125 3.125 -9.46875 C 2.6875 -9.15625 2.46875 -8.707031 2.46875 -8.125 C 2.46875 -7.644531 2.613281 -7.28125 2.90625 -7.03125 C 3.195312 -6.789062 3.75 -6.59375 4.5625 -6.4375 L 5.453125 -6.25 C 6.554688 -6.039062 7.367188 -5.671875 7.890625 -5.140625 C 8.421875 -4.609375 8.6875 -3.898438 8.6875 -3.015625 C 8.6875 -1.953125 8.332031 -1.144531 7.625 -0.59375 C 6.914062 -0.0507812 5.875 0.21875 4.5 0.21875 C 3.976562 0.21875 3.425781 0.15625 2.84375 0.03125 C 2.257812 -0.0820312 1.65625 -0.253906 1.03125 -0.484375 L 1.03125 -2 C 1.632812 -1.664062 2.222656 -1.410156 2.796875 -1.234375 C 3.367188 -1.066406 3.9375 -0.984375 4.5 -0.984375 C 5.34375 -0.984375 5.992188 -1.148438 6.453125 -1.484375 C 6.910156 -1.816406 7.140625 -2.289062 7.140625 -2.90625 C 7.140625 -3.445312 6.972656 -3.867188 6.640625 -4.171875 C 6.316406 -4.472656 5.78125 -4.695312 5.03125 -4.84375 L 4.125 -5.03125 C 3.019531 -5.25 2.21875 -5.59375 1.71875 -6.0625 C 1.226562 -6.53125 0.984375 -7.179688 0.984375 -8.015625 C 0.984375 -8.984375 1.320312 -9.742188 2 -10.296875 C 2.6875 -10.859375 3.628906 -11.140625 4.828125 -11.140625 C 5.335938 -11.140625 5.859375 -11.09375 6.390625 -11 C 6.921875 -10.90625 7.46875 -10.765625 8.03125 -10.578125 Z M 8.03125 -10.578125 "/>
</symbol>
<symbol overflow="visible" id="glyph0-2">
<path style="stroke:none;" d="M 1.46875 -10.9375 L 3.46875 -10.9375 L 8.3125 -1.78125 L 8.3125 -10.9375 L 9.75 -10.9375 L 9.75 0 L 7.75 0 L 2.90625 -9.140625 L 2.90625 0 L 1.46875 0 Z M 1.46875 -10.9375 "/>
</symbol>
<symbol overflow="visible" id="glyph0-3">
<path style="stroke:none;" d="M 1.46875 -10.9375 L 2.953125 -10.9375 L 2.953125 -6.453125 L 8.328125 -6.453125 L 8.328125 -10.9375 L 9.8125 -10.9375 L 9.8125 0 L 8.328125 0 L 8.328125 -5.203125 L 2.953125 -5.203125 L 2.953125 0 L 1.46875 0 Z M 1.46875 -10.9375 "/>
</symbol>
</g>
</defs>
<g id="surface16801">
<rect x="0" y="0" width="300" height="300" style="fill:rgb(100%,100%,100%);fill-opacity:1;stroke:none;"/>
<path style="fill:none;stroke-width:1.2;stroke-linecap:butt;stroke-linejoin:miter;stroke:rgb(80%,80%,0%);stroke-opacity:1;stroke-miterlimit:10;" d="M 47.621094 156.699219 L 41.433594 173.183594 "/>
<path style="fill:none;stroke-width:1.2;stroke-linecap:butt;stroke-linejoin:miter;stroke:rgb(0%,0%,0%);stroke-opacity:1;stroke-miterlimit:10;" d="M 41.433594 173.183594 L 35.25 189.664062 "/>
<path style="fill:none;stroke-width:1.2;stroke-linecap:butt;stroke-linejoin:miter;stroke:rgb(0%,0%,0%);stroke-opacity:1;stroke-miterlimit:10;" d="M 82.792969 158.277344 L 65.207031 157.488281 "/>
<path style="fill:none;stroke-width:1.2;stroke-linecap:butt;stroke-linejoin:miter;stroke:rgb(80%,80%,0%);stroke-opacity:1;stroke-miterlimit:10;" d="M 65.207031 157.488281 L 47.621094 156.699219 "/>
<path style=" stroke:none;fill-rule:nonzero;fill:rgb(100%,100%,100%);fill-opacity:1;" d="M 42.621094 147.699219 L 52.621094 147.699219 L 52.621094 165.699219 L 42.621094 165.699219 Z M 42.621094 147.699219 "/>
<g style="fill:rgb(80%,80%,0%);fill-opacity:1;">
  <use xlink:href="#glyph0-1" x="42.621094" y="161.313477"/>
</g>
<path style="fill:none;stroke-width:1.2;stroke-linecap:butt;stroke-linejoin:miter;stroke:rgb(0%,0%,0%);stroke-opacity:1;stroke-miterlimit:10;" d="M 35.25 189.664062 L 62.777344 211.617188 "/>
<path style="fill:none;stroke-width:1.2;stroke-linecap:butt;stroke-linejoin:miter;stroke:rgb(0%,0%,0%);stroke-opacity:1;stroke-miterlimit:10;" d="M 43.167969 185.382812 L 65.191406 202.945312 "/>
<path style="fill:none;stroke-width:1.2;stroke-linecap:butt;stroke-linejoin:miter;stroke:rgb(0%,0%,0%);stroke-opacity:1;stroke-miterlimit:10;" d="M 62.777344 211.617188 L 92.160156 192.21875 "/>
<path style="fill:none;stroke-width:1.2;stroke-linecap:butt;stroke-linejoin:miter;stroke:rgb(0%,0%,0%);stroke-opacity:1;stroke-miterlimit:10;" d="M 92.160156 192.21875 L 82.792969 158.277344 "/>
<path style="fill:none;stroke-width:1.2;stroke-linecap:butt;stroke-linejoin:miter;stroke:rgb(0%,0%,0%);stroke-opacity:1;stroke-miterlimit:10;" d="M 83.238281 191.027344 L 75.742188 163.878906 "/>
<path style="fill:none;stroke-width:1.2;stroke-linecap:butt;stroke-linejoin:miter;stroke:rgb(0%,0%,0%);stroke-opacity:1;stroke-miterlimit:10;" d="M 82.792969 158.277344 L 104.742188 130.75 "/>
<path style="fill:none;stroke-width:1.2;stroke-linecap:butt;stroke-linejoin:miter;stroke:rgb(0%,0%,0%);stroke-opacity:1;stroke-miterlimit:10;" d="M 104.742188 130.75 L 100.058594 113.78125 "/>
<path style="fill:none;stroke-width:1.2;stroke-linecap:butt;stroke-linejoin:miter;stroke:rgb(0%,0%,100%);stroke-opacity:1;stroke-miterlimit:10;" d="M 100.058594 113.78125 L 95.375 96.8125 "/>
<path style="fill:none;stroke-width:1.2;stroke-linecap:butt;stroke-linejoin:miter;stroke:rgb(0%,0%,0%);stroke-opacity:1;stroke-miterlimit:10;" d="M 111.792969 125.152344 L 108.046875 111.578125 "/>
<path style="fill:none;stroke-width:1.2;stroke-linecap:butt;stroke-linejoin:miter;stroke:rgb(0%,0%,100%);stroke-opacity:1;stroke-miterlimit:10;" d="M 108.046875 111.578125 L 104.296875 98 "/>
<path style="fill:none;stroke-width:1.2;stroke-linecap:butt;stroke-linejoin:miter;stroke:rgb(0%,0%,0%);stroke-opacity:1;stroke-miterlimit:10;" d="M 139.917969 132.328125 L 104.742188 130.75 "/>
<path style="fill:none;stroke-width:1.2;stroke-linecap:butt;stroke-linejoin:miter;stroke:rgb(0%,0%,100%);stroke-opacity:1;stroke-miterlimit:10;" d="M 95.375 96.8125 L 124.757812 77.414062 "/>
<path style=" stroke:none;fill-rule:nonzero;fill:rgb(100%,100%,100%);fill-opacity:1;" d="M 90.375 87.8125 L 101.375 87.8125 L 101.375 105.8125 L 90.375 105.8125 Z M 90.375 87.8125 "/>
<g style="fill:rgb(0%,0%,100%);fill-opacity:1;">
  <use xlink:href="#glyph0-2" x="90.375" y="101.426758"/>
</g>
<path style="fill:none;stroke-width:1.2;stroke-linecap:butt;stroke-linejoin:miter;stroke:rgb(0%,0%,100%);stroke-opacity:1;stroke-miterlimit:10;" d="M 124.757812 77.414062 L 138.523438 88.390625 "/>
<path style="fill:none;stroke-width:1.2;stroke-linecap:butt;stroke-linejoin:miter;stroke:rgb(0%,0%,0%);stroke-opacity:1;stroke-miterlimit:10;" d="M 138.523438 88.390625 L 152.285156 99.367188 "/>
<path style=" stroke:none;fill-rule:nonzero;fill:rgb(100%,100%,100%);fill-opacity:1;" d="M 113.757812 68.414062 L 136.757812 68.414062 L 136.757812 86.414062 L 113.757812 86.414062 Z M 113.757812 68.414062 "/>
<g style="fill:rgb(0%,0%,100%);fill-opacity:1;">
  <use xlink:href="#glyph0-2" x="113.757812" y="82.02832"/>
  <use xlink:href="#glyph0-3" x="124.733398" y="82.02832"/>
</g>
<path style="fill:none;stroke-width:1.2;stroke-linecap:butt;stroke-linejoin:miter;stroke:rgb(0%,0%,0%);stroke-opacity:1;stroke-miterlimit:10;" d="M 152.285156 99.367188 L 139.917969 132.328125 "/>
<path style="fill:none;stroke-width:1.2;stroke-linecap:butt;stroke-linejoin:miter;stroke:rgb(0%,0%,0%);stroke-opacity:1;stroke-miterlimit:10;" d="M 143.292969 99.75 L 133.398438 126.121094 "/>
<path style="fill:none;stroke-width:1.2;stroke-linecap:butt;stroke-linejoin:miter;stroke:rgb(0%,0%,0%);stroke-opacity:1;stroke-miterlimit:10;" d="M 139.917969 132.328125 L 159.3125 161.710938 "/>
<path style="fill:none;stroke-width:1.2;stroke-linecap:butt;stroke-linejoin:miter;stroke:rgb(0%,0%,0%);stroke-opacity:1;stroke-miterlimit:10;" d="M 159.3125 161.710938 L 194.460938 159.605469 "/>
<path style="fill:none;stroke-width:1.2;stroke-linecap:butt;stroke-linejoin:miter;stroke:rgb(0%,0%,0%);stroke-opacity:1;stroke-miterlimit:10;" d="M 163.324219 169.769531 L 191.441406 168.085938 "/>
<path style="fill:none;stroke-width:1.2;stroke-linecap:butt;stroke-linejoin:miter;stroke:rgb(0%,0%,0%);stroke-opacity:1;stroke-miterlimit:10;" d="M 143.566406 193.203125 L 159.3125 161.710938 "/>
<path style="fill:none;stroke-width:1.2;stroke-linecap:butt;stroke-linejoin:miter;stroke:rgb(0%,0%,0%);stroke-opacity:1;stroke-miterlimit:10;" d="M 194.460938 159.605469 L 213.855469 188.988281 "/>
<path style="fill:none;stroke-width:1.2;stroke-linecap:butt;stroke-linejoin:miter;stroke:rgb(0%,0%,0%);stroke-opacity:1;stroke-miterlimit:10;" d="M 210.207031 128.113281 L 194.460938 159.605469 "/>
<path style="fill:none;stroke-width:1.2;stroke-linecap:butt;stroke-linejoin:miter;stroke:rgb(0%,0%,0%);stroke-opacity:1;stroke-miterlimit:10;" d="M 213.855469 188.988281 L 205.984375 204.734375 "/>
<path style="fill:none;stroke-width:1.2;stroke-linecap:butt;stroke-linejoin:miter;stroke:rgb(0%,0%,100%);stroke-opacity:1;stroke-miterlimit:10;" d="M 205.984375 204.734375 L 198.109375 220.476562 "/>
<path style="fill:none;stroke-width:1.2;stroke-linecap:butt;stroke-linejoin:miter;stroke:rgb(0%,0%,0%);stroke-opacity:1;stroke-miterlimit:10;" d="M 204.871094 188.433594 L 198.574219 201.027344 "/>
<path style="fill:none;stroke-width:1.2;stroke-linecap:butt;stroke-linejoin:miter;stroke:rgb(0%,0%,100%);stroke-opacity:1;stroke-miterlimit:10;" d="M 198.574219 201.027344 L 192.273438 213.625 "/>
<path style="fill:none;stroke-width:1.2;stroke-linecap:butt;stroke-linejoin:miter;stroke:rgb(0%,0%,0%);stroke-opacity:1;stroke-miterlimit:10;" d="M 213.855469 188.988281 L 249.003906 186.882812 "/>
<path style="fill:none;stroke-width:1.2;stroke-linecap:butt;stroke-linejoin:miter;stroke:rgb(0%,0%,100%);stroke-opacity:1;stroke-miterlimit:10;" d="M 198.109375 220.476562 L 180.535156 221.53125 "/>
<path style="fill:none;stroke-width:1.2;stroke-linecap:butt;stroke-linejoin:miter;stroke:rgb(0%,0%,0%);stroke-opacity:1;stroke-miterlimit:10;" d="M 180.535156 221.53125 L 162.964844 222.585938 "/>
<path style=" stroke:none;fill-rule:nonzero;fill:rgb(100%,100%,100%);fill-opacity:1;" d="M 193.109375 211.476562 L 204.109375 211.476562 L 204.109375 229.476562 L 193.109375 229.476562 Z M 193.109375 211.476562 "/>
<g style="fill:rgb(0%,0%,100%);fill-opacity:1;">
  <use xlink:href="#glyph0-2" x="193.109375" y="225.09082"/>
</g>
<path style="fill:none;stroke-width:1.2;stroke-linecap:butt;stroke-linejoin:miter;stroke:rgb(0%,0%,0%);stroke-opacity:1;stroke-miterlimit:10;" d="M 162.964844 222.585938 L 143.566406 193.203125 "/>
<path style="fill:none;stroke-width:1.2;stroke-linecap:butt;stroke-linejoin:miter;stroke:rgb(0%,0%,0%);stroke-opacity:1;stroke-miterlimit:10;" d="M 167.9375 215.082031 L 152.417969 191.578125 "/>
<path style="fill:none;stroke-width:1.2;stroke-linecap:butt;stroke-linejoin:miter;stroke:rgb(0%,0%,0%);stroke-opacity:1;stroke-miterlimit:10;" d="M 249.003906 186.882812 L 264.75 155.390625 "/>
<path style="fill:none;stroke-width:1.2;stroke-linecap:butt;stroke-linejoin:miter;stroke:rgb(0%,0%,0%);stroke-opacity:1;stroke-miterlimit:10;" d="M 243.167969 180.027344 L 255.765625 154.835938 "/>
<path style="fill:none;stroke-width:1.2;stroke-linecap:butt;stroke-linejoin:miter;stroke:rgb(0%,0%,0%);stroke-opacity:1;stroke-miterlimit:10;" d="M 264.75 155.390625 L 245.351562 126.007812 "/>
<path style="fill:none;stroke-width:1.2;stroke-linecap:butt;stroke-linejoin:miter;stroke:rgb(0%,0%,0%);stroke-opacity:1;stroke-miterlimit:10;" d="M 245.351562 126.007812 L 210.207031 128.113281 "/>
<path style="fill:none;stroke-width:1.2;stroke-linecap:butt;stroke-linejoin:miter;stroke:rgb(0%,0%,0%);stroke-opacity:1;stroke-miterlimit:10;" d="M 242.332031 134.488281 L 214.21875 136.171875 "/>
</g>
</svg>

<svg xmlns="http://www.w3.org/2000/svg" xmlns:xlink="http://www.w3.org/1999/xlink" width="300pt" height="300pt" viewBox="0 0 300 300"><defs><symbol overflow="visible"><path d="M.75 2.656v-13.234h7.5V2.656zm.844-.844h5.812V-9.733H1.594zm0 0"/></symbol><symbol overflow="visible" id="a"><path d="M8.03-10.578v1.437C7.47-9.4 6.94-9.6 6.44-9.735c-.5-.133-.98-.204-1.438-.204-.813 0-1.438.157-1.875.47-.438.312-.656.76-.656 1.343 0 .48.143.844.436 1.094.29.24.844.436 1.656.593l.89.187c1.103.21 1.915.578 2.44 1.11.53.53.795 1.242.795 2.124 0 1.063-.355 1.87-1.062 2.422C6.915-.05 5.875.22 4.5.22 3.977.22 3.426.155 2.844.03 2.258-.08 1.656-.253 1.03-.483V-2c.603.336 1.193.59 1.767.766.57.168 1.14.25 1.703.25.844 0 1.492-.164 1.953-.5.457-.332.688-.805.688-1.422 0-.54-.167-.96-.5-1.266-.324-.3-.86-.523-1.61-.672l-.905-.187C3.02-5.25 2.22-5.595 1.72-6.063 1.226-6.532.983-7.18.983-8.017c0-.968.336-1.726 1.016-2.28.688-.563 1.63-.845 2.828-.845.508 0 1.03.046 1.563.14.532.094 1.08.234 1.64.422zm0 0"/></symbol><symbol overflow="visible" id="b"><path d="M1.47-10.938h2L8.31-1.78v-9.158H9.75V0h-2L2.906-9.14V0H1.47zm0 0"/></symbol><symbol overflow="visible" id="c"><path d="M1.47-10.938h1.483v4.485h5.375v-4.484h1.485V0H8.328v-5.203H2.953V0H1.47zm0 0"/></symbol></defs><g><path fill="#fff" d="M0 0h300v300H0z"/><path d="M47.62 156.7l-6.186 16.484" stroke-width="1.2" stroke="#cc0" stroke-miterlimit="10" fill="none"/><path d="M41.434 173.184l-6.184 16.48M82.793 158.277l-17.586-.79" stroke-width="1.2" stroke="#000" stroke-miterlimit="10" fill="none"/><path d="M65.207 157.488l-17.586-.79" stroke-width="1.2" stroke="#cc0" stroke-miterlimit="10" fill="none"/><path d="M42.62 147.7h10v18h-10zm0 0" fill="#fff"/><use xlink:href="#a" x="42.621" y="161.313" fill="#cc0"/><path d="M35.25 189.664l27.527 21.953M43.168 185.383l22.023 17.562M62.777 211.617L92.16 192.22M92.16 192.22l-9.367-33.943M83.238 191.027l-7.496-27.148M82.793 158.277l21.95-27.527M104.742 130.75l-4.683-16.97" stroke-width="1.2" stroke="#000" stroke-miterlimit="10" fill="none"/><path d="M100.06 113.78l-4.685-16.968" stroke-width="1.2" stroke="#00f" stroke-miterlimit="10" fill="none"/><path d="M111.793 125.152l-3.746-13.574" stroke-width="1.2" stroke="#000" stroke-miterlimit="10" fill="none"/><path d="M108.047 111.578L104.297 98" stroke-width="1.2" stroke="#00f" stroke-miterlimit="10" fill="none"/><path d="M139.918 132.328l-35.176-1.578" stroke-width="1.2" stroke="#000" stroke-miterlimit="10" fill="none"/><path d="M95.375 96.813l29.383-19.4" stroke-width="1.2" stroke="#00f" stroke-miterlimit="10" fill="none"/><path d="M90.375 87.813h11v18h-11zm0 0" fill="#fff"/><use xlink:href="#b" x="90.375" y="101.427" fill="#00f"/><path d="M124.758 77.414l13.765 10.977" stroke-width="1.2" stroke="#00f" stroke-miterlimit="10" fill="none"/><path d="M138.523 88.39l13.762 10.977" stroke-width="1.2" stroke="#000" stroke-miterlimit="10" fill="none"/><path d="M113.758 68.414h23v18h-23zm0 0" fill="#fff"/><g fill="#00f"><use xlink:href="#b" x="113.758" y="82.028"/><use xlink:href="#c" x="124.733" y="82.028"/></g><path d="M152.285 99.367l-12.367 32.96M143.293 99.75l-9.895 26.37M139.918 132.328l19.394 29.383M159.313 161.71l35.148-2.105M163.324 169.77l28.117-1.684M143.566 193.203l15.746-31.492M194.46 159.605l19.395 29.383M210.207 128.113l-15.746 31.492M213.855 188.988l-7.87 15.746" stroke-width="1.2" stroke="#000" stroke-miterlimit="10" fill="none"/><path d="M205.984 204.734l-7.875 15.743" stroke-width="1.2" stroke="#00f" stroke-miterlimit="10" fill="none"/><path d="M204.87 188.434l-6.296 12.593" stroke-width="1.2" stroke="#000" stroke-miterlimit="10" fill="none"/><path d="M198.574 201.027l-6.3 12.598" stroke-width="1.2" stroke="#00f" stroke-miterlimit="10" fill="none"/><path d="M213.855 188.988l35.15-2.105" stroke-width="1.2" stroke="#000" stroke-miterlimit="10" fill="none"/><path d="M198.11 220.477l-17.575 1.054" stroke-width="1.2" stroke="#00f" stroke-miterlimit="10" fill="none"/><path d="M180.535 221.53l-17.57 1.056" stroke-width="1.2" stroke="#000" stroke-miterlimit="10" fill="none"/><path d="M193.11 211.477h11v18h-11zm0 0" fill="#fff"/><use xlink:href="#b" x="193.109" y="225.091" fill="#00f"/><path d="M162.965 222.586l-19.4-29.383M167.938 215.082l-15.52-23.504M249.004 186.883l15.746-31.492M243.168 180.027l12.598-25.19M264.75 155.39l-19.398-29.382M245.352 126.008l-35.145 2.105M242.332 134.488l-28.113 1.684" stroke-width="1.2" stroke="#000" stroke-miterlimit="10" fill="none"/></g></svg>
